X: 20
T: No_117_Hinata_Dance_Song_(m).krn
N: Derived from No_117_Hinata_Dance_Song_(m).krn
%%abc-version 2.0
%%abcx-abcm2ps-target-version 5.9.1 (29 Sep 2008)
%%abc-creator hum2abc beta
%%abcx-conversion-date 2019/03/15 08:38:45
%%humdrum-veritas 1384497616
%%humdrum-veritas-data 2859520874
%%linebreak <none>
%%barnumbers 0
L: 1/16
M: 3/4
K: Bb clef=bass
[K:clef=bass][M:3/4]B,3F, F,2 z B, (B,G,3) ]|:  
[M:2/4]C3B,(G,4 | 
F,4)z3 G, | 
F,3F, F,2B,B, ||  
[M:5/8]F,3F,(F,D,/) z/ B,B,3 ||  
[M:2/4]C3B,(G,4 | 
F,4)z3 G, | 
F,2F,F, F,2B,B, ||  
[M:5/8]F,3F,(F,D,/) z/ B,B,G,2 ||  
[M:2/4]C3B,(G,4 | 
F,4)z3 G, | 
F,2F,F,F,4 ||  
[M:3/4]B,3F, F,D,2B, (B,F,3) :|]  



